X: 10105
T: Diferion Arian
R: slip jig
M: 9/8
K: Gmajor
|:GAB- BcB d2 B|GAB- BcB G2 E|GAB- BcB d2 B|cAA- ABG F2 D:|
|:GB[dg]- [dg]fg e2 c|GB[dg]- [dg]fg d2 B|GB[dg]- [dg]fg e2 c|GBd edc BAD:|

